X:1
T:Cruel Miller
M:4/4
L:1/8
K:C
C-D| E2 E2 E2D-E| G2- G2 A2G-E| E2 E2 E2D-C| D6|C-D| E2 E2 E2D-E| G3- E G2 A2|\
G-ED-E C2 C2| C6|G-A| c2 cd c2 GG| A3 G A2 cc| A3 G E2D-C| D6|C-D|\
 E2 E2 E2D-E| G2 E2 G2 A2|G-ED-E C2 C2| C6||
